!!! OTL: Literature39
!!! Chapter: 5
!!! Section: I
!!! Page: 352
!!! Mode: 
!!! Encoder: DJB
**kern
*staff1
*I"Piano
=1-
*clefF4
*k[f#c#]
*D:
*M4/4
4AA/
8AA/L
8BB/J
4D\
4F#\
=2
4D\
4BB/
2AA/
=3
4.A\
8B\
4A\
4F#\
=4
8F#\
[4.A\
4A\]
4A\
=5
4.B\
8A\
8F#\L
8E\J
4D\
=6
4E\
4F#\
2AA/
=7
4AA/
8F#\L
8E\J
4D\
4AA/
=8
8BB/
[4.D\
2D\]
==
*-
